svg/fr/04.svg

<?xml version="1.0" encoding="UTF-8" standalone="no"?>
<!-- Created with Inkscape (http://www.inkscape.org/) -->
<svg
   xmlns:dc="http://purl.org/dc/elements/1.1/"
   xmlns:cc="http://web.resource.org/cc/"
   xmlns:rdf="http://www.w3.org/1999/02/22-rdf-syntax-ns#"
   xmlns:svg="http://www.w3.org/2000/svg"
   xmlns="http://www.w3.org/2000/svg"
   xmlns:sodipodi="http://sodipodi.sourceforge.net/DTD/sodipodi-0.dtd"
   xmlns:inkscape="http://www.inkscape.org/namespaces/inkscape"
   width="1203.588"
   height="797.19165"
   id="svg2"
   sodipodi:version="0.32"
   inkscape:version="0.45.1"
   sodipodi:docbase="C:\Users\Jany\Documents\aaaOuiqui\Drapeaux"
   sodipodi:docname="Drapeau fr département Alpes-de-Haute-Provence.svg"
   inkscape:output_extension="org.inkscape.output.svg.inkscape"
   version="1.0">
  <defs
     id="defs4" />
  <sodipodi:namedview
     id="base"
     pagecolor="#ffffff"
     bordercolor="#666666"
     borderopacity="1.0"
     inkscape:pageopacity="0.0"
     inkscape:pageshadow="2"
     inkscape:zoom="0.49497475"
     inkscape:cx="827.23839"
     inkscape:cy="310.88422"
     inkscape:document-units="px"
     inkscape:current-layer="layer1"
     inkscape:window-width="1152"
     inkscape:window-height="814"
     inkscape:window-x="-8"
     inkscape:window-y="-8"
     showguides="true"
     inkscape:guide-bbox="true">
    <sodipodi:guide
       orientation="vertical"
       position="-745.49257"
       id="guide28349" />
  </sodipodi:namedview>
  <metadata
     id="metadata7">
    <rdf:RDF>
      <cc:Work
         rdf:about="">
        <dc:format>image/svg+xml</dc:format>
        <dc:type
           rdf:resource="http://purl.org/dc/dcmitype/StillImage" />
      </cc:Work>
    </rdf:RDF>
  </metadata>
  <g
     inkscape:label="Calque 1"
     inkscape:groupmode="layer"
     id="layer1"
     transform="translate(1126.0609,-137.47842)"
     style="display:inline">
    <g
       transform="translate(-1022.3356,584.65272)"
       id="g22331"
       style="display:inline" />
    <path
       style="fill:none;fill-opacity:0.75;fill-rule:evenodd;stroke:none;stroke-width:3;stroke-linecap:butt;stroke-linejoin:miter;stroke-miterlimit:4;stroke-dasharray:none;stroke-opacity:1;display:inline"
       d="M 95.2819,215.06078 L 95.2819,-235.96609"
       id="path11207" />
    <rect
       transform="matrix(0,-1,1,0,0,0)"
       y="-44.954388"
       x="557.12079"
       height="0"
       width="1.5233166"
       id="rect12745"
       style="fill:#ffffff;fill-opacity:1;fill-rule:evenodd;stroke:none;stroke-width:1.52331662;stroke-linecap:round;stroke-linejoin:round;stroke-miterlimit:4;stroke-dasharray:none;stroke-dashoffset:0;stroke-opacity:1" />
    <path
       style="fill:#2b5df2;fill-opacity:1;stroke:#000000;stroke-width:0.40000001;stroke-miterlimit:4;stroke-dasharray:none;stroke-opacity:1"
       d="M -1125.856,137.67842 L 77.322109,137.67842 L 77.322109,934.47007 L -1125.856,934.47007 L -1125.856,137.67842 z "
       id="path10799"
       sodipodi:nodetypes="ccccc" />
    <path
       style="fill:none;fill-rule:evenodd;stroke:#000000;stroke-width:0.98280448px;stroke-linecap:butt;stroke-linejoin:miter;stroke-opacity:1"
       d="M 212.19321,1320.0324 L 212.19321,1320.0324 z "
       id="path30950" />
    <g
       style="stroke:#000000;stroke-width:1.27075899;stroke-miterlimit:4;stroke-dasharray:none;stroke-opacity:1;display:inline"
       id="g3413"
       transform="matrix(0.8419652,0,0,0.8419652,-476.47921,935.5361)">
      <path
         sodipodi:nodetypes="csssssscscsscccccccsscscssssssc"
         id="path3415"
         d="M -57.633837,-705.17868 C -30.089844,-675.40609 -13.894412,-658.98716 -11.064498,-612.79131 C -8.4456282,-570.04056 -36.894385,-534.29955 -43.02614,-492.94976 C -44.189174,-485.10681 -45.187238,-469.09787 -44.136325,-462.60528 C -43.358017,-457.79688 -40.965141,-443.10737 -38.351677,-461.28315 C -37.81417,-465.02136 -37.42876,-483.77697 -35.780722,-493.30035 C -32.777781,-510.65309 -23.161392,-541.16579 -6.477681,-558.07088 C 10.198906,-574.96872 36.625058,-585.9294 60.19185,-577.0901 C 81.544489,-567.23784 83.562894,-539.41423 77.487364,-519.06832 C 69.878413,-493.58724 40.801083,-475.95083 14.732696,-474.22269 C 19.898071,-484.43755 32.261512,-513.59376 18.852066,-512.43643 C 3.3302682,-511.09678 -15.236376,-484.68769 -20.070285,-466.57169 C -21.890708,-459.74935 -21.154981,-449.1567 -30.901751,-449.59412 C -24.474635,-427.87838 -6.332539,-413.50882 9.5615707,-398.35031 C -7.0071014,-396.9731 -23.398583,-404.77049 -37.855015,-412.19841 C -37.243753,-397.31009 -40.134158,-365.85822 -57.633837,-348.68414 C -73.87733,-366.36863 -75.355429,-387.93709 -75.659736,-412.19841 C -90.116168,-404.77049 -106.50765,-396.9731 -123.07632,-398.35031 C -107.18221,-413.50882 -89.040116,-427.87838 -82.613,-449.59412 C -92.35977,-449.1567 -92.946186,-459.08828 -94.766604,-465.91062 C -99.600513,-484.0266 -116.84502,-511.0968 -132.36682,-512.43643 C -145.77626,-513.59376 -133.41282,-484.43755 -128.24745,-474.22269 C -154.31583,-475.95083 -183.39315,-493.58724 -191.00211,-519.06832 C -197.07765,-539.41423 -195.05923,-567.23785 -173.7066,-577.0901 C -150.1398,-585.9294 -123.71366,-574.96873 -107.03707,-558.07088 C -90.353362,-541.16579 -80.73697,-510.65309 -77.734029,-493.30035 C -76.085991,-483.77697 -76.361651,-466.34349 -75.824143,-462.60528 C -73.210679,-444.42949 -70.156734,-457.7969 -69.378426,-462.60528 C -68.327513,-469.09787 -69.325577,-485.10682 -70.488611,-492.94976 C -76.620366,-534.29953 -102.37684,-571.49448 -102.45025,-612.79131 C -102.51537,-650.0807 -83.76762,-678.4534 -57.633837,-705.17868 z "
         style="fill:#fcef3c;fill-opacity:1;fill-rule:evenodd;stroke:#000000;stroke-width:1.18802321;stroke-linecap:butt;stroke-linejoin:miter;stroke-miterlimit:4;stroke-dasharray:none;stroke-opacity:1" />
      <rect
         transform="scale(-1,1)"
         ry="7.0119839"
         y="-474.15433"
         x="-20.840672"
         height="22"
         width="136"
         id="rect3417"
         style="fill:#fcef3c;fill-opacity:1;fill-rule:evenodd;stroke:#000000;stroke-width:1.27075899;stroke-linejoin:round;stroke-miterlimit:4;stroke-dasharray:none;stroke-opacity:1"
         rx="7.0119839" />
    </g>
    <path
       style="fill:#e20909;fill-opacity:1;fill-rule:evenodd;stroke:#000000;stroke-width:0.5822534px;stroke-linecap:butt;stroke-linejoin:miter;stroke-opacity:1"
       d="M -824.93705,281.96392 C -819.39709,281.96392 -735.06615,281.96392 -735.06615,281.96392 L -755.43536,227.30145 L -545.86793,227.30145 L -566.55881,281.96392 L -477.26156,281.96392 L -499.42147,227.30145 L -291.05585,227.30145 L -312.08283,281.96392 L -223.59684,281.96392 L -256.43104,204.78613 L -791.03951,204.78613 L -824.93705,281.96392 z "
       id="path12492"
       sodipodi:nodetypes="ccccccccccccc" />
    <path
       sodipodi:nodetypes="cccccccccc"
       id="path12743"
       d="M -1125.856,869.67842 L -925.32633,683.67842 L -724.79665,869.67842 L -524.26695,683.67842 L -323.73729,869.67842 L -123.20763,683.67842 L 77.322035,869.67842 L 77.322109,934.47007 L -1125.856,934.47007 L -1125.856,869.67842 z "
       style="fill:#ffffff;fill-opacity:1;stroke:#000000;stroke-width:0.40000001;stroke-miterlimit:4;stroke-dasharray:none;stroke-opacity:1" />
  </g>
  <g
     inkscape:groupmode="layer"
     id="layer2"
     transform="translate(-1.2170716,-1.26427)">
    <path
       id="path3430"
       d="M 799.5926,1303.6645 L 799.5926,1303.6645 z "
       style="fill:none;fill-rule:evenodd;stroke:#000000;stroke-width:0.98280448px;stroke-linecap:butt;stroke-linejoin:miter;stroke-opacity:1" />
  </g>
</svg>

<svg xmlns="http://www.w3.org/2000/svg" width="1203.588" height="797.192" version="1"><path d="M1221.343 77.582v-451.027" fill="none"/><path d="M.205.2h1203.178v796.792H.205V.2z" fill="#2b5df2" stroke="#000" stroke-width=".4"/><path d="M1338.254 1182.554z" fill="none" stroke="#000" stroke-width=".983"/><g transform="matrix(.84197 0 0 .84197 649.582 798.058)" stroke="#000" stroke-width="1.271" fill="#fcef3c" fill-rule="evenodd"><path d="M-57.634-705.179c27.544 29.773 43.74 46.192 46.57 92.388 2.618 42.75-25.83 78.491-31.962 119.841-1.163 7.843-2.161 23.852-1.11 30.345.778 4.808 3.17 19.498 5.784 1.322.538-3.738.923-22.494 2.571-32.017 3.003-17.353 12.62-47.866 29.303-64.77 16.677-16.899 43.103-27.86 66.67-19.02 21.352 9.852 23.37 37.676 17.295 58.022-7.609 25.48-36.686 43.117-62.754 44.845 5.165-10.215 17.529-39.37 4.12-38.213-15.523 1.34-34.09 27.748-38.923 45.864-1.82 6.823-1.085 17.415-10.832 16.978 6.427 21.716 24.57 36.085 40.464 51.244-16.57 1.377-32.96-6.42-47.417-13.848.611 14.888-2.28 46.34-19.779 63.514-16.243-17.685-17.721-39.253-18.026-63.514-14.456 7.428-30.848 15.225-47.416 13.848 15.894-15.159 34.036-29.528 40.463-51.244-9.747.437-10.333-9.494-12.154-16.317-4.834-18.116-22.078-45.186-37.6-46.525-13.41-1.158-1.046 27.998 4.12 38.213-26.069-1.728-55.146-19.364-62.755-44.845-6.076-20.346-4.057-48.17 17.295-58.022 23.567-8.84 49.993 2.121 66.67 19.02 16.684 16.904 26.3 47.417 29.303 64.77 1.648 9.523 1.372 26.957 1.91 30.695 2.613 18.176 5.667 4.808 6.446 0 1.05-6.493.052-22.502-1.11-30.345-6.132-41.35-31.889-78.544-31.962-119.841-.065-37.29 18.682-65.662 44.816-92.388z" stroke-width="1.188"/><rect transform="scale(-1 1)" ry="7.012" y="-474.154" x="-20.841" height="22" width="136" rx="7.012" stroke-linejoin="round"/></g><path d="M301.124 144.485h89.87l-20.368-54.662h209.567l-20.69 54.662h89.296l-22.16-54.662h208.366l-21.027 54.662h88.486L869.63 67.308H335.02l-33.897 77.177z" fill="#e20909" fill-rule="evenodd" stroke="#000" stroke-width=".582"/><path d="M.205 732.2l200.53-186 200.53 186 200.529-186 200.53 186 200.53-186 200.529 186v64.792H.205V732.2z" fill="#fff" stroke="#000" stroke-width=".4"/><g><path d="M798.376 1302.4z" fill="none" stroke="#000" stroke-width=".983"/></g></svg>
